Numix/16/status/indicator-keyboard-Es.svg

<?xml version="1.0" encoding="UTF-8" standalone="no"?>
<svg
   xmlns:dc="http://purl.org/dc/elements/1.1/"
   xmlns:cc="http://creativecommons.org/ns#"
   xmlns:rdf="http://www.w3.org/1999/02/22-rdf-syntax-ns#"
   xmlns:svg="http://www.w3.org/2000/svg"
   xmlns="http://www.w3.org/2000/svg"
   xmlns:sodipodi="http://sodipodi.sourceforge.net/DTD/sodipodi-0.dtd"
   xmlns:inkscape="http://www.inkscape.org/namespaces/inkscape"
   viewBox="0 0 16 16"
   id="svg2"
   version="1.1"
   inkscape:version="0.91 r13725"
   sodipodi:docname="indicator-keyboard-Es.svg">
  <metadata
     id="metadata13">
    <rdf:RDF>
      <cc:Work
         rdf:about="">
        <dc:format>image/svg+xml</dc:format>
        <dc:type
           rdf:resource="http://purl.org/dc/dcmitype/StillImage" />
      </cc:Work>
    </rdf:RDF>
  </metadata>
  <defs
     id="defs11" />
  <sodipodi:namedview
     pagecolor="#ffffff"
     bordercolor="#666666"
     borderopacity="1"
     objecttolerance="10"
     gridtolerance="10"
     guidetolerance="10"
     inkscape:pageopacity="0"
     inkscape:pageshadow="2"
     inkscape:window-width="459"
     inkscape:window-height="369"
     id="namedview9"
     showgrid="false"
     inkscape:zoom="14.75"
     inkscape:cx="8"
     inkscape:cy="8"
     inkscape:window-x="65"
     inkscape:window-y="24"
     inkscape:window-maximized="0"
     inkscape:current-layer="svg2" />
  <path
     style="fill:#ececec;fill-opacity:1"
     d="M 1.5996094 0 C 0.71320937 2.9605947e-16 0 0.71320937 0 1.5996094 L 0 14.400391 C 2.9605947e-16 15.286791 0.71320937 16 1.5996094 16 L 14.400391 16 C 15.286791 16 16 15.286791 16 14.400391 L 16 1.5996094 C 16 0.71320937 15.286791 0 14.400391 0 L 1.5996094 0 z M 4.1621094 4.828125 L 7.7636719 4.828125 L 7.7636719 5.359375 L 4.7753906 5.359375 L 4.7753906 7.5273438 L 7.4394531 7.5273438 L 7.4394531 8.0488281 L 4.7753906 8.0488281 L 4.7753906 10.533203 L 7.9960938 10.533203 L 7.9960938 11.064453 L 4.1621094 11.064453 L 4.1621094 4.828125 z M 10.378906 6.3027344 C 10.696906 6.3027344 10.958109 6.3307656 11.162109 6.3847656 C 11.372109 6.4387656 11.519516 6.4872969 11.603516 6.5292969 L 11.46875 7.0507812 C 11.39675 7.0147813 11.273609 6.96625 11.099609 6.90625 C 10.931609 6.84625 10.681562 6.8164062 10.351562 6.8164062 C 10.219562 6.8164062 10.09461 6.8313281 9.9746094 6.8613281 C 9.8606094 6.8853281 9.7579688 6.9282812 9.6679688 6.9882812 C 9.5779687 7.0422813 9.5051719 7.113125 9.4511719 7.203125 C 9.3971719 7.287125 9.3710938 7.3915781 9.3710938 7.5175781 C 9.3710938 7.6435781 9.3953594 7.7517969 9.4433594 7.8417969 C 9.4913594 7.9317969 9.5603906 8.0139375 9.6503906 8.0859375 C 9.7463906 8.1519375 9.8601875 8.2153906 9.9921875 8.2753906 C 10.130188 8.3353906 10.286938 8.4006562 10.460938 8.4726562 C 10.640937 8.5446562 10.810656 8.6192656 10.972656 8.6972656 C 11.140656 8.7692656 11.288062 8.8587969 11.414062 8.9667969 C 11.540062 9.0687969 11.642703 9.1957031 11.720703 9.3457031 C 11.798703 9.4897031 11.837891 9.6725312 11.837891 9.8945312 C 11.837891 10.314531 11.677375 10.631656 11.359375 10.847656 C 11.047375 11.063656 10.618266 11.171875 10.072266 11.171875 C 9.6642654 11.171875 9.3527188 11.136453 9.1367188 11.064453 C 8.9207188 10.998453 8.7770781 10.948109 8.7050781 10.912109 L 8.8574219 10.380859 C 8.8754219 10.392859 8.9146094 10.413359 8.9746094 10.443359 C 9.0346094 10.467359 9.11675 10.497203 9.21875 10.533203 C 9.32075 10.563203 9.440125 10.591234 9.578125 10.615234 C 9.722125 10.639234 9.8862654 10.650391 10.072266 10.650391 C 10.408266 10.650391 10.684391 10.596281 10.900391 10.488281 C 11.122391 10.374281 11.234375 10.185875 11.234375 9.921875 C 11.234375 9.795875 11.213875 9.6876562 11.171875 9.5976562 C 11.135875 9.5076562 11.072422 9.4274688 10.982422 9.3554688 C 10.892422 9.2834688 10.773047 9.2144375 10.623047 9.1484375 C 10.479047 9.0824375 10.298031 9.0040625 10.082031 8.9140625 C 9.9080311 8.8420625 9.7438906 8.7692656 9.5878906 8.6972656 C 9.4318906 8.6192656 9.2938281 8.5315469 9.1738281 8.4355469 C 9.0538281 8.3335469 8.9567656 8.2141719 8.8847656 8.0761719 C 8.8127656 7.9381719 8.7773438 7.7702656 8.7773438 7.5722656 C 8.7773438 7.1942656 8.9172188 6.8882969 9.1992188 6.6542969 C 9.4872188 6.4202969 9.8809061 6.3027344 10.378906 6.3027344 z "
     id="path4" />
</svg>

<svg xmlns="http://www.w3.org/2000/svg" viewBox="0 0 16 16">
 <path d="m 1.6 0 c -0.886 0 -1.6 0.713 -1.6 1.6 l 0 12.801 c 0 0.886 0.713 1.6 1.6 1.6 l 12.801 0 c 0.886 0 1.6 -0.713 1.6 -1.6 l 0 -12.801 c 0 -0.886 -0.713 -1.6 -1.6 -1.6 l -12.801 0 z m 2.563 4.828 l 3.602 0 l 0 0.531 l -2.988 0 l 0 2.168 l 2.664 0 l 0 0.521 l -2.664 0 l 0 2.484 l 3.221 0 l 0 0.531 l -3.834 0 l 0 -6.236 z m 6.217 1.475 c 0.318 0 0.579 0.028 0.783 0.082 c 0.21 0.054 0.357 0.103 0.441 0.145 l -0.135 0.521 c -0.072 -0.036 -0.195 -0.085 -0.369 -0.145 c -0.168 -0.06 -0.418 -0.09 -0.748 -0.09 c -0.132 0 -0.257 0.015 -0.377 0.045 c -0.114 0.024 -0.217 0.067 -0.307 0.127 c -0.09 0.054 -0.163 0.125 -0.217 0.215 c -0.054 0.084 -0.08 0.188 -0.08 0.314 c 0 0.126 0.024 0.234 0.072 0.324 c 0.048 0.09 0.117 0.172 0.207 0.244 c 0.096 0.066 0.21 0.129 0.342 0.189 c 0.138 0.06 0.295 0.125 0.469 0.197 c 0.18 0.072 0.35 0.147 0.512 0.225 c 0.168 0.072 0.315 0.162 0.441 0.27 c 0.126 0.102 0.229 0.229 0.307 0.379 c 0.078 0.144 0.117 0.327 0.117 0.549 c 0 0.42 -0.161 0.737 -0.479 0.953 c -0.312 0.216 -0.741 0.324 -1.287 0.324 c -0.408 0 -0.72 -0.035 -0.936 -0.107 c -0.216 -0.066 -0.36 -0.116 -0.432 -0.152 l 0.152 -0.531 c 0.018 0.012 0.057 0.033 0.117 0.063 c 0.06 0.024 0.142 0.054 0.244 0.09 c 0.102 0.03 0.221 0.058 0.359 0.082 c 0.144 0.024 0.308 0.035 0.494 0.035 c 0.336 0 0.612 -0.054 0.828 -0.162 c 0.222 -0.114 0.334 -0.302 0.334 -0.566 c 0 -0.126 -0.021 -0.234 -0.063 -0.324 c -0.036 -0.09 -0.099 -0.17 -0.189 -0.242 c -0.09 -0.072 -0.209 -0.141 -0.359 -0.207 c -0.144 -0.066 -0.325 -0.144 -0.541 -0.234 c -0.174 -0.072 -0.338 -0.145 -0.494 -0.217 c -0.156 -0.078 -0.294 -0.166 -0.414 -0.262 c -0.12 -0.102 -0.217 -0.221 -0.289 -0.359 c -0.072 -0.138 -0.107 -0.306 -0.107 -0.504 c 0 -0.378 0.14 -0.684 0.422 -0.918 c 0.288 -0.234 0.682 -0.352 1.18 -0.352 z" style="fill:#ececec;fill-opacity:1"/>
</svg>
